logos/gravatar-icon.svg

<?xml version="1.0" encoding="UTF-8"?>
<svg width="256px" height="256px" viewBox="0 0 256 256" version="1.1" xmlns="http://www.w3.org/2000/svg" preserveAspectRatio="xMidYMid">
    <title>Gravatar</title>
    <g>
        <path d="M102.397328,25.589038 L102.397328,115.183854 C102.397328,129.31629 113.853931,140.772892 127.986366,140.772892 C142.118802,140.772892 153.575404,129.31629 153.575404,115.183854 L153.575404,55.5772289 C185.840093,66.9522866 206.691447,98.2960968 204.714788,132.450085 C202.738129,166.604073 178.410064,195.333128 145.048529,202.910074 C111.686995,210.48702 77.3360287,195.084925 60.8004157,165.135374 C44.2648028,135.185824 49.5315621,97.9101662 73.7175063,73.7142537 C83.5451364,63.6808645 83.4618678,47.6053324 73.5308253,37.6742899 C63.5997827,27.7432473 47.5242507,27.6599788 37.4908615,37.4876089 C-5.68734932,80.6652912 -12.3516695,148.331227 21.5736226,199.102722 C55.4989148,249.874217 120.564878,269.61029 176.978891,246.240881 C233.392904,222.871472 265.442421,162.905477 253.526805,103.016511 C241.61119,43.1275451 189.049204,-0.00399450723 127.986366,2.84217094e-14 C113.853931,2.84217094e-14 102.397328,11.4566026 102.397328,25.589038 Z" fill="#4678EB"></path>
    </g>
</svg>

<?xml version="1.0" encoding="UTF-8"?>
<svg width="256" height="256" version="1.1" xmlns="http://www.w3.org/2000/svg" preserveAspectRatio="xMidYMid">
	<path d="M102.397 25.589v89.595c0 14.132 11.457 25.589 25.59 25.589 14.132 0 25.588-11.457 25.588-25.59V55.578c32.265 11.375 53.116 42.72 51.14 76.873-1.977 34.154-26.305 62.883-59.666 70.46-33.362 7.577-67.713-7.825-84.249-37.775-16.535-29.95-11.268-67.225 12.918-91.42 9.827-10.034 9.744-26.11-.187-36.04-9.931-9.932-26.007-10.015-36.04-.187C-5.687 80.665-12.352 148.33 21.574 199.103c33.925 50.771 98.99 70.507 155.405 47.138 56.414-23.37 88.463-83.336 76.548-143.224C241.61 43.127 189.049-.004 127.987 0c-14.133 0-25.59 11.457-25.59 25.589Z" fill="#4678EB"/>
</svg>
